X:049 
T:Fair Maids of Newtown* (reel), The
F:file ID mfc/049fair_m
Z:bill@capeirish.com
B:MFC.036D (unnamed)
Q:180
L:1/8
M:4/4
R:reel
K:G
"A dorian - repeats added"
G|A2Ae cAec|ABce dBGB|A2Ae cAec|BGEF G2fg|
ae~e2 ce~e2|aece dBGB|AGAB cAec|BGEF GAB:|
d|:ea~a2 eaaf|g2ge dBGB|A2ag edBA|BGEF GABd|
ea~a2 eaaf|g2ge dBGB|A2AB cBcd|eaaf gedB:|
"last time"eaaf gedB|A8||

